modules/web-console/frontend/public/images/icons/gear.svg

<svg id="gear-icon" xmlns="http://www.w3.org/2000/svg" viewBox="0 0 16 16"><style>.st0{fill:#424242}</style><path class="st0" d="M14.1 8.8c0-.3.1-.5.1-.8 0-.3 0-.5-.1-.8l1.7-1.3c.2-.1.2-.3.1-.5l-1.6-2.8c-.1-.2-.3-.2-.5-.2l-2 .8c-.4-.3-.9-.6-1.4-.8L10.1.3C10 .1 9.8 0 9.6 0H6.4c-.3 0-.4.1-.5.3l-.3 2.2c-.5.2-1 .5-1.4.8l-2-.8c-.2-.1-.4-.1-.5.1L.1 5.4c-.1.2-.1.4.1.5l1.7 1.3c0 .3-.1.5-.1.8 0 .3 0 .5.1.8L.2 10.1c-.2.1-.2.3-.1.5l1.6 2.8c.1.2.3.2.5.2l2-.8c.4.3.9.6 1.4.8l.3 2.1c.1.2.2.3.5.3h3.3c.2 0 .4-.1.4-.3l.3-2.1c.5-.2 1-.5 1.4-.8l2 .8c.2.1.4 0 .5-.2l1.6-2.8c.1-.2.1-.4-.1-.5l-1.7-1.3zM8 11c-1.7 0-3-1.3-3-3s1.3-3 3-3 3 1.3 3 3-1.3 3-3 3z"/></svg>

<?xml version="1.0" encoding="utf-8"?>
<!-- Generator: Adobe Illustrator 21.0.2, SVG Export Plug-In . SVG Version: 6.00 Build 0)  -->
<svg version="1.1" id="Layer_1" xmlns="http://www.w3.org/2000/svg" xmlns:xlink="http://www.w3.org/1999/xlink" x="0px" y="0px"
	 viewBox="0 0 16 16" style="enable-background:new 0 0 16 16;" xml:space="preserve">
<style type="text/css">
	.st0{fill:#424242;}
</style>
<title>Combined Shape</title>
<desc>Created with Sketch.</desc>
<path class="st0" d="M14.1,8.8c0-0.3,0.1-0.5,0.1-0.8c0-0.3,0-0.5-0.1-0.8l1.7-1.3C16,5.8,16,5.6,15.9,5.4l-1.6-2.8
	c-0.1-0.2-0.3-0.2-0.5-0.2l-2,0.8c-0.4-0.3-0.9-0.6-1.4-0.8l-0.3-2.1C10,0.1,9.8,0,9.6,0H6.4C6.1,0,6,0.1,5.9,0.3L5.6,2.5
	c-0.5,0.2-1,0.5-1.4,0.8l-2-0.8C2,2.4,1.8,2.4,1.7,2.6L0.1,5.4C0,5.6,0,5.8,0.2,5.9l1.7,1.3c0,0.3-0.1,0.5-0.1,0.8
	c0,0.3,0,0.5,0.1,0.8l-1.7,1.3C0,10.2,0,10.4,0.1,10.6l1.6,2.8c0.1,0.2,0.3,0.2,0.5,0.2l2-0.8c0.4,0.3,0.9,0.6,1.4,0.8l0.3,2.1
	C6,15.9,6.1,16,6.4,16h3.3c0.2,0,0.4-0.1,0.4-0.3l0.3-2.1c0.5-0.2,1-0.5,1.4-0.8l2,0.8c0.2,0.1,0.4,0,0.5-0.2l1.6-2.8
	c0.1-0.2,0.1-0.4-0.1-0.5L14.1,8.8z M8,11c-1.7,0-3-1.3-3-3s1.3-3,3-3s3,1.3,3,3S9.7,11,8,11z"/>
</svg>
